Catalina-dark/actions/16/depth16to8.svg

<?xml version="1.0" encoding="UTF-8" standalone="no"?>
<svg
   xmlns:dc="http://purl.org/dc/elements/1.1/"
   xmlns:cc="http://creativecommons.org/ns#"
   xmlns:rdf="http://www.w3.org/1999/02/22-rdf-syntax-ns#"
   xmlns:svg="http://www.w3.org/2000/svg"
   xmlns="http://www.w3.org/2000/svg"
   xmlns:sodipodi="http://sodipodi.sourceforge.net/DTD/sodipodi-0.dtd"
   xmlns:inkscape="http://www.inkscape.org/namespaces/inkscape"
   width="16"
   height="16"
   viewBox="0 0 16 16"
   version="1.1"
   id="svg7"
   sodipodi:docname="depth16to8.svg"
   inkscape:version="0.92.4 5da689c313, 2019-01-14">
  <metadata
     id="metadata11">
    <rdf:RDF>
      <cc:Work
         rdf:about="">
        <dc:format>image/svg+xml</dc:format>
        <dc:type
           rdf:resource="http://purl.org/dc/dcmitype/StillImage" />
      </cc:Work>
    </rdf:RDF>
  </metadata>
  <sodipodi:namedview
     pagecolor="#ffffff"
     bordercolor="#666666"
     borderopacity="1"
     objecttolerance="10"
     gridtolerance="10"
     guidetolerance="10"
     inkscape:pageopacity="0"
     inkscape:pageshadow="2"
     inkscape:window-width="640"
     inkscape:window-height="480"
     id="namedview9"
     showgrid="false"
     inkscape:zoom="14.75"
     inkscape:cx="6.8135593"
     inkscape:cy="8"
     inkscape:window-x="0"
     inkscape:window-y="26"
     inkscape:window-maximized="0"
     inkscape:current-layer="svg7" />
  <defs
     id="defs3">
    <style
       id="current-color-scheme"
       type="text/css">
   .ColorScheme-Text { color:#5c616c; } .ColorScheme-Highlight { color:#5294e2; }
  </style>
  </defs>
  <path
     style="fill:#f1f6f8;fill-opacity:0.8509804"
     class="ColorScheme-Text"
     d="M 1 0.73046875 L 1 1.7304688 L 2 1.7304688 L 2 7.7304688 L 3 7.7304688 L 3 0.73046875 L 2 0.73046875 L 1 0.73046875 z M 6 0.73046875 A 2 2 0 0 0 4 2.7304688 L 4 5.7304688 A 2 2 0 0 0 6 7.7304688 A 2 2 0 0 0 8 5.7304688 A 2 2 0 0 0 6 3.7304688 A 2 2 0 0 0 5 4 L 5 2.7304688 A 1 1 0 0 1 6 1.7304688 A 1 1 0 0 1 7 2.7304688 L 8 2.7304688 A 2 2 0 0 0 6 0.73046875 z M 8 1 L 8 2 A 7 7 0 0 1 14.308594 6 L 10.699219 6 L 10.699219 7 L 14.699219 7 L 15.699219 7 L 15.699219 6.8867188 L 15.699219 6 L 15.699219 2 L 14.699219 2 L 14.699219 4.65625 A 8 8 0 0 0 8 1 z M 6 4.7304688 A 1 1 0 0 1 7 5.7304688 A 1 1 0 0 1 6 6.7304688 A 1 1 0 0 1 5 5.7304688 A 1 1 0 0 1 6 4.7304688 z M 14 8 A 2 2 0 0 0 12 10 A 2 2 0 0 0 12.679688 11.5 A 2 2 0 0 0 12 13 A 2 2 0 0 0 14 15 A 2 2 0 0 0 16 13 A 2 2 0 0 0 15.320312 11.5 A 2 2 0 0 0 16 10 A 2 2 0 0 0 14 8 z M 1 9 L 1 9.1132812 L 1 10 L 1 14 L 2 14 L 2 11.34375 A 8 8 0 0 0 8.6992188 15 L 8.6992188 14 A 7 7 0 0 1 2.390625 10 L 6 10 L 6 9 L 1.9980469 9 L 1 9 z M 14 9 A 1 1 0 0 1 15 10 A 1 1 0 0 1 14 11 A 1 1 0 0 1 13 10 A 1 1 0 0 1 14 9 z M 14 12 A 1 1 0 0 1 15 13 A 1 1 0 0 1 14 14 A 1 1 0 0 1 13 13 A 1 1 0 0 1 14 12 z"
     id="path5" />
</svg>

<svg width="16" height="16" version="1.1" viewBox="0 0 16 16" xmlns="http://www.w3.org/2000/svg">
<defs>
<style id="current-color-scheme" type="text/css">.ColorScheme-Text { color:#5c616c; } .ColorScheme-Highlight { color:#5294e2; }</style>
</defs>
<path class="ColorScheme-Text" d="m1 0.73047v1h1v6h1v-7h-1-1zm5 0a2 2 0 0 0-2 2v3a2 2 0 0 0 2 2 2 2 0 0 0 2-2 2 2 0 0 0-2-2 2 2 0 0 0-1 0.26953v-1.2695a1 1 0 0 1 1-1 1 1 0 0 1 1 1h1a2 2 0 0 0-2-2zm2 0.26953v1a7 7 0 0 1 6.3086 4h-3.6094v1h4 1v-0.11328-0.88672-4h-1v2.6562a8 8 0 0 0-6.6992-3.6562zm-2 3.7305a1 1 0 0 1 1 1 1 1 0 0 1-1 1 1 1 0 0 1-1-1 1 1 0 0 1 1-1zm8 3.2695a2 2 0 0 0-2 2 2 2 0 0 0 0.67969 1.5 2 2 0 0 0-0.67969 1.5 2 2 0 0 0 2 2 2 2 0 0 0 2-2 2 2 0 0 0-0.67969-1.5 2 2 0 0 0 0.67969-1.5 2 2 0 0 0-2-2zm-13 1v0.11328 0.88672 4h1v-2.6562a8 8 0 0 0 6.6992 3.6562v-1a7 7 0 0 1-6.3086-4h3.6094v-1h-4.002-0.99805zm13 0a1 1 0 0 1 1 1 1 1 0 0 1-1 1 1 1 0 0 1-1-1 1 1 0 0 1 1-1zm0 3a1 1 0 0 1 1 1 1 1 0 0 1-1 1 1 1 0 0 1-1-1 1 1 0 0 1 1-1z" fill="#f1f6f8" fill-opacity=".85098"/>
</svg>
